icon/cg/umbrella.svg

<svg viewBox="0 0 24 24" fill="none" xmlns="http://www.w3.org/2000/svg" height="1em" width="1em">
  <path fill-rule="evenodd" clip-rule="evenodd" d="M4 9C4 4.58172 7.58172 1 12 1C16.4183 1 20 4.58172 20 9V11H13.0187V20.5C13.0187 21.8807 11.8994 23 10.5187 23C9.13797 23 8.01868 21.8807 8.01868 20.5V17.8571H10.0187V20.5C10.0187 20.7761 10.2425 21 10.5187 21C10.7948 21 11.0187 20.7761 11.0187 20.5V11H4V9ZM12 3C15.3137 3 18 5.68629 18 9H6C6 5.68629 8.68629 3 12 3Z" fill="currentColor"/>
</svg>

<svg width="24" height="24" fill="none" xmlns="http://www.w3.org/2000/svg"><path fill-rule="evenodd" clip-rule="evenodd" d="M4 9a8 8 0 1 1 16 0v2h-6.981v9.5a2.5 2.5 0 0 1-5 0v-2.643h2V20.5a.5.5 0 1 0 1 0V11H4V9Zm8-6a6 6 0 0 1 6 6H6a6 6 0 0 1 6-6Z" fill="currentColor"/></svg>
